X: 55
T:Lads of Laois, The
M:C|
L:1/8
R:Reel
K:EDor
F[|:EB,~B,2 EGFE|DA,~A,2 DEFA|GEED EFGA|B2eB dBAF|!
EB,~B,2 EGFE|DA,~A,2 DEFD|E2BE dBAF|1DEFA GEED:|2DEFA GE~E2|!
|:eB~B2 egfe|defa gfed|(3Bcd ef gfge|fgaf gfed|!
eB~B2 GBFB|EBBA Bdef|~g3e ~f3d|1efed BAFA:|2efed BAFD|]!
